X: 7
T: Man Of The House, The
Z: JACKB
S: https://thesession.org/tunes/222#setting27823
R: reel
M: 4/4
L: 1/8
K: Emin
E2 BE GABG|E2 BE FDAD|E2 BE GABc|dBcA BEFD|
E2 BE GABG|E2 BE FDAD|E2 BE GABc|dBcA BE E2||
efge fgaf|gfed Bded|efge fgaf|gfed Be e2|
efge fgaf|gfed efga|bgaf gfed|edBA GBFB||

